src/icons/social-yahoo.svg

<svg xmlns="http://www.w3.org/2000/svg" width="512" height="512" viewBox="0 0 512 512">
    <path d="M369.9 83.4c-10 0-19.9-.7-28.9-3.9l-85 141.7-85-141.7c-8.9 3.2-18.3 3.9-28.3 3.9-9.8 0-19.6-.8-28.3-3.9l113.3 188.3v151.7c8.9-3.1 18.4-3.9 28.3-3.9 9.9 0 19.5.8 28.3 3.9V268.1L397.7 79.5c-8.8 3-18 3.9-27.8 3.9z"/>
</svg>

<?xml version="1.0" encoding="UTF-8"?>
<svg width="512px" height="512px" viewBox="0 0 512 512" version="1.1" xmlns="http://www.w3.org/2000/svg" xmlns:xlink="http://www.w3.org/1999/xlink">
    <!-- Generator: Sketch 62 (91390) - https://sketch.com -->
    <title>social-yahoo</title>
    <desc>Created with Sketch.</desc>
    <g id="social-yahoo" stroke="none" stroke-width="1" fill="none" fill-rule="evenodd">
        <path d="M369.9,83.4 C359.9,83.4 350,82.7 341,79.5 L256,221.2 L171,79.5 C162.1,82.7 152.7,83.4 142.7,83.4 C132.9,83.4 123.1,82.6 114.4,79.5 L227.7,267.8 L227.7,419.5 C236.6,416.4 246.1,415.6 256,415.6 C265.9,415.6 275.5,416.4 284.3,419.5 L284.3,268.1 L397.7,79.5 C388.9,82.5 379.7,83.4 369.9,83.4 Z" id="Path" fill="#000000" fill-rule="nonzero"></path>
    </g>
</svg>
